!!!COM: Corelli, Arcangelo
!!!OPR: Sonata da chiesa
!!!OPS: 1
!!!ONM: 5
!!!OMV: 2
!!!OMD: Allegro
**kern	**fb	**kern	**kern	**kern
*part4	*part4	*part3	*part2	*part1
*staff4	*	*staff3	*staff2	*staff1
*I"Organo	*	*I"Violone	*I"Violino II	*I"Violino I
*clefF4	*	*clefF4	*clefG2	*clefG2
*k[b-]	*	*k[b-]	*k[b-]	*k[b-]
*M4/4	*	*M4/4	*M4/4	*M4/4
=1	=1	=1	=1	=1
4BB-	.	4BB-	1r	4.b-
2B-	5	2B-	.	.
.	.	.	.	8dd
.	6 -r4	.	.	8ggL
.	.	.	.	8ee-X
4A	6	4A	.	8cc
.	.	.	.	8ffJ
=	=	=	=	=
4.B-	5	4.B-	1r	8ddL
.	.	.	.	8b-J
.	6	.	.	[4gg
8G	.	8G	.	.
4.A	7	4.A	.	8ggL]
.	.	.	.	8ccJ
.	6	.	.	[4ff
8F	.	8F	.	.
=	=	=	=	=
4.G	6	4.G	1r	8ffL]
.	.	.	.	8b-J
.	6 -	.	.	[4ee-X
8E-X	.	8E-X	.	.
4F	-7	4F	.	8ee-L]
.	.	.	.	8ddJ
4BB-	6	4BB-	.	8dd
.	.	.	.	16ee-LL
.	.	.	.	16ddJJ
=	=	=	=	=
4E-X	6 5	4E-X	1r	2cc
4F	.	4F	.	.
2BB-	.	2BB-	.	8b-L
.	.	.	.	8bb-
.	.	.	.	8aa
.	.	.	.	8ggJ
=	=	=	=	=
4F	.	4F	4.f	8aaL
.	.	.	.	8ccJ
4D	.	4D	.	2ff
.	.	.	8a	.
4BB-	6 5	4BB-	8ddL	.
.	.	.	8b-	.
4C	n	4C	8g	4ee
.	.	.	8ccJ	.
=	=	=	=	=
4FF	5	4FF	8aL	4.ff
.	.	.	8fJ	.
4F	6	4F	[4dd	.
.	.	.	.	8ff
4G	-r6 5	4G	8ddL]	4.ee-X
.	.	.	8gJ	.
4A	-r5	4A	[4cc	.
.	.	.	.	(16ffLL
.	.	.	.	16ee-JJ)
=	=	=	=	=
4.B-	9	4.B-	8ccL]	4.dd
.	8	.	8fJ	.
.	.	.	[4b-	.
8E-X	.	8E-X	.	16ee-XLL
.	.	.	.	16ddJJ
4.F	5 4	4.F	8b-L]	8ccL
.	3	.	8aJ	8ccJ
.	.	.	8a	[4ff
8BB-	.	8BB-	(16b-LL	.
.	.	.	16aJJ)	.
=	=	=	=	=
2C	4	2C	2g	4ff]
.	3	.	.	4ee
4FF	.	4FF	8fL	8ffL
.	.	.	8ff	8dd
4r	.	4r	8ee-X	8cc
.	.	.	8ddJ	8b-J
=	=	=	=	=
2r	.	2r	8ee-XL	8ccL
.	.	.	8ee-	8cc
.	.	.	8dd	8b-
.	.	.	8ccJ	8aJ
4.BB-	.	4.BB-	8ddL	4.b-
.	.	.	8fJ	.
.	.	.	[4b-	.
8D	6	8D	.	8ff
=	=	=	=	=
8GL	-r6	8GL	4b-]	4.ee-X
8E-X	.	8E-X	.	.
8C	6 -	8C	4a	.
8FJ	.	8FJ	.	(16ddLL
.	.	.	.	16ccJJ)
8DL	6	8DL	4.b-	8ddL
8BB-J	.	8BB-J	.	8dd
[4G	-r6	[4G	.	8ee-
.	.	.	8bb-	8ddJ
=	=	=	=	=
4G]	4 2	8GL]	4.aa	8ccL
.	6	8CJ	.	8a
2F	6	2F	.	8dd
.	4 2	.	(16bb-LL	8ccJ
.	.	.	16aaJJ)	.
.	.	.	4.gg	8b-L
.	.	.	.	8g
4E	6	4E	.	8cc
.	.	.	8gg	8b-J
=	=	=	=	=
4.F	.	4.F	8ffL	4a
.	.	.	8ccJ	.
.	.	.	[4ff	4r
8D	.	8D	.	.
4E-X	9	4E-X	8ffL]	4.gg
.	.	.	8b-J	.
8CL	-	8CL	[4ee-X	.
8cJ	.	8cJ	.	16aaLL
.	.	.	.	16ggJJ
=	=	=	=	=
8AL	6 5	8AL	8ee-L]	4.ff
8FJ	-	8FJ	8aJ	.
4B-	.	4B-	[4dd	.
.	.	.	.	(16ggLL
.	.	.	.	16ffJJ)
4G	-r6 5	4G	8ddL]	4.ee-X
.	.	.	8gJ	.
4A	-r5	4A	[4cc	.
.	.	.	.	(16ffLL
.	.	.	.	16ee-JJ)
=	=	=	=	=
4.B-	9	4.B-	8ccL]	4.dd
.	8	.	8fJ	.
.	.	.	2b-	.
8G	-r6	8G	.	(16ee-XLL
.	.	.	.	16ddJJ)
8E-XL	6 5	8E-XL	.	16ccLL
.	.	.	.	16ff
8C	.	8C	.	16ee-
.	.	.	.	16ddJJ
8F	.	8F	4a	8.ccL
8FFJ	.	8FFJ	.	.
.	.	.	.	16ccJk
=	=	=	=	=
8BB-L	.	8BB-L	4.b-	8b-L
8B-	.	8B-	.	8fJ
8G	.	8G	.	4b-
8B-J	.	8B-J	8dd	.
4E-X	6 5	4E-X	8ggL	2r
.	.	.	8ee-X	.
4F	.	4F	8cc	.
.	.	.	8ffJ	.
=	=	=	=	=
4.B-	5	4.B-	8ddL	8r
.	6	.	8b-J	8bb-L
.	.	.	[4gg	8bb-
8G	.	8G	.	8bb-J
4.A	7	4.A	8ggL]	4.aa
.	6	.	8ccJ	.
.	.	.	[4ff	.
8d	6	8d	.	(16bb-LL
.	.	.	.	16aaJJ)
=	=	=	=	=
8B-L	6	8B-L	4ff]	2gg
8G	.	8G	.	.
8c	6 5	8c	4ee	.
8CJ	.	8CJ	.	.
4.F	5	4.F	8r	8ffL
.	6	.	8ffL	8aJ
.	.	.	8ff	[4dd
8F	.	8F	8ffJ	.
=	=	=	=	=
4G	-r6 5	4G	4.ee-X	8ddL]
.	.	.	.	8gJ
4A	-r5	4A	.	[4cc
.	.	.	(16ffLL	.
.	.	.	16ee-JJ)	.
4.B-	9	4.B-	4.dd	8ccL]
.	.	.	.	8fJ
.	8	.	.	[4b-
8D	6	8D	8ff	.
=	=	=	=	=
8GL	#6\	8GL	4.ee-X	4b-]
8E-X	.	8E-X	.	.
8C	6 -	8C	.	4a
8FJ	.	8FJ	(16ddLL	.
.	.	.	16ccJJ)	.
8DL	6	8DL	4.dd	8b-L
8BB-J	.	8BB-J	.	8ffJ
8r	.	8r	.	[4bb-
8BB-	.	8BB-	8dd	.
=	=	=	=	=
4.C	7 -	4.C	4.ee-X	8bb-]
.	6	.	.	(16aaLL
.	.	.	.	16ggJJ)
.	.	.	.	[4aa
16DLL	.	16DLL	(16ffLL	.
16CJJ	.	16CJJ	16ee-JJ)	.
4.BB-	7	4.BB-	4.dd	8aa]
.	6	.	.	(16ggLL
.	.	.	.	16ffJJ)
.	.	.	.	[4gg
16CLL	.	16CLL	(16ee-LL	.
16BB-JJ	.	16BB-JJ	16ddJJ)	.
=	=	=	=	=
4.AA	7	4.AA	4.cc	4gg]
.	#6\	.	.	.
.	.	.	.	4ff#X
8AA	.	8AA	(16ddLL	.
.	.	.	16ccJJ)	.
8GGL	5	8GGL	8b-L	8ggL
8G	.	8G	8ddJ	8b-
8G	-r6	8G	[4ee-X	8b-
8GJ	.	8GJ	.	8b-J
=	=	=	=	=
4.F	-7	4.F	8ee-]	4.a
.	6	.	(16ddLL	.
.	.	.	16ccJJ)	.
.	.	.	[4dd	.
16GLL	.	16GLL	.	(16b-LL
16FJJ	.	16FJJ	.	16aJJ)
4.E-X	7	4.E-X	8dd]	4.g
.	6	.	(16ccLL	.
.	.	.	16b-JJ)	.
.	.	.	8ccL	.
8E-	.	8E-	8ccJ	(16aLL
.	.	.	.	16gJJ)
=	=	=	=	=
4D	#	4D	4dd	8f#XL
.	.	.	.	8aJ
8r	.	8r	8r	2dd
8BB-	6	8BB-	8d	.
4.C	7	4.C	8eL	.
.	8	.	8f#X	.
.	.	.	8g	[4cc
8C	6	8C	8aJ	.
=	=	=	=	=
4D	7 #	4D	8f#XL	4cc]
.	.	.	8dJ	.
4E-X	5	4E-X	2g	4b-
4C	6 5	4C	.	2a
4D	#	4D	4f#	.
=	=	=	=	=
4.GG	5	4.GG	8gL	8gL
.	.	.	8b-J	8gg
.	-r6	.	[4ee-X	8gg
8GG	.	8GG	.	8ggJ
4AA	6 -r5	4AA	8ee-L]	4.ff
.	.	.	8aJ	.
4BBn	.	4BBn	[4dd	.
.	.	.	.	(16ggLL
.	.	.	.	16ffJJ)
=	=	=	=	=
4.C	9 -	4.C	8ddL]	4.ee-X
.	8	.	8gJ	.
.	.	.	2cc	.
8A-X	6	8A-X	.	16ffLL
.	.	.	.	16ee-JJ
4F	6 5 -	4F	.	2dd
4G	n	4G	4bn	.
=	=	=	=	=
4C	-	8CL	4cc	8ee-XL
.	.	8c	.	8cc
4c	.	8c	4r	8cc
.	.	8cJ	.	8ccJ
4B-	.	4.B-	2r	4dd
4G	nr6	.	.	4een
.	.	16cLL	.	.
.	.	16B-JJ	.	.
=	=	=	=	=
8CL	6	4A	8r	8ffL
*clefG2	*	*	*	*
8f	.	.	8ffL	8f
8f	.	4r	8ff	8f
8fJ	.	.	8ffJ	8fJ
4g	-r6	2r	4.ee-X	4g
4a	-r5	.	.	4a
.	.	.	(16ffLL	.
.	.	.	16ee-JJ)	.
=	=	=	=	=
8b-L	.	8r	8ddL	8b-L
*clefF4	*	*	*	*
8BB-	5	8BB-L	8b-J	8bb-
8BB-	6	8BB-	[4gg	8bb-
8BB-J	.	8BB-J	.	8bb-J
4C	6 5 -	4C	8ggL]	4.aa
.	.	.	8ccJ	.
4D	5	4D	[4ff	.
.	.	.	.	16bb-LL
.	.	.	.	16aaJJ
=	=	=	=	=
4E-X	9	4E-X	8ffL]	4.gg
.	.	.	8b-J	.
8CL	-	8CL	4ee-X	.
8cJ	.	8cJ	.	16aaLL
.	.	.	.	16ggJJ
8AL	6	8AL	4r	8ffL
8F	.	8F	.	8ffJ
8D	6	8D	8r	[4bb-
8BB-J	.	8BB-J	8dd	.
=	=	=	=	=
4E-X	6 5	4E-X	8ggL	4bb-]
.	.	.	8ee-X	.
4F	.	4F	8cc	4aa
.	.	.	8ffJ	.
8BB-L	5	8r	8ddL	8bb-L
8B-	.	8B-L	8b-J	8dd
8B-	6	8B-	[4gg	8dd
8B-J	.	8B-J	.	8ddJ
=	=	=	=	=
4.A	7	4.A	8ggL]	4cc
.	6	.	8ccJ	.
.	.	.	2ff	8r
8F	.	8F	.	8a
4BB-	6 5	4BB-	.	8ddL
.	.	.	.	8b-
4C	.	4C	4ee	8g
.	.	.	.	8ccJ
=	=	=	=	=
8FFL	5	8FFL	8r	8aL
8F	.	8F	8ffL	8fJ
8F	6	8F	8ff	[4dd
8FJ	.	8FJ	8ffJ	.
4G	-r6 5	4G	4.ee-X	8ddL]
.	.	.	.	8gJ
4A	-r5	4A	.	[4cc
.	.	.	(16ffLL	.
.	.	.	16ee-JJ)	.
=	=	=	=	=
4.B-	9	4.B-	4.dd	8ccL]
.	8	.	.	8fJ
.	.	.	.	2b-
8D	6	8D	8ff	.
8GL	-r6	8GL	4.ee-X	.
8E-X	.	8E-X	.	.
8C	6 -	8C	.	4a
8FJ	.	8FJ	(16ffLL	.
.	.	.	16ee-JJ)	.
=	=	=	=	=
8DL	6	8DL	8ddL	8b-L
8BB-J	.	8BB-J	8ddJ	8bb-
8r	.	8r	[4gg	8bb-
8BB-	6	8BB-	.	8bb-J
4C	6 5	4C	8ggL]	4.aa
.	.	.	8ccJ	.
4D	5	4D	[4ff	.
.	.	.	.	(16bb-LL
.	.	.	.	16aaJJ)
=	=	=	=	=
4E-X	9	4E-X	8ffL]	16ggLL
.	.	.	.	16ff
.	.	.	8b-J	16gg
.	.	.	.	16aaJJ
8CL	5	8CL	[4ee-X	16ggLL
.	.	.	.	16bb-
8cJ	.	8cJ	.	16aa
.	.	.	.	16ggJJ
8AL	6 -r5	8AL	8ee-L]	4.ff
8FJ	.	8FJ	8aJ	.
4B-	.	4B-	[4dd	.
.	.	.	.	(16ggLL
.	.	.	.	16ffJJ)
=	=	=	=	=
4G	-r6 5	4G	8ddL]	16ee-XLL
.	.	.	.	16dd
.	.	.	8gJ	16ee-
.	.	.	.	16ffJJ
4A	-r5	4A	[4cc	16ee-LL
.	.	.	.	16gg
.	.	.	.	16ff
.	.	.	.	16ee-JJ
4.B-	9	4.B-	8ccL]	4.dd
.	8	.	8fJ	.
.	.	.	[4b-	.
8D	6	8D	.	(16bb-LL
.	.	.	.	16aaJJ)
=	=	=	=	=
4E-X	.	4E-X	4b-]	(16ggLL
.	.	.	.	16ff)
.	.	.	.	(16ee-X
.	.	.	.	16ddJJ)
4F	.	4F	4a	8.ccL
.	.	.	.	16ccJk
4.BB-	.	4.BB-	8b-L	4.b-
.	.	.	8fJ	.
.	.	.	[4b-	.
8D	6	8D	.	(16bb-LL
.	.	.	.	16aaJJ)
=	=	=	=	=
4E-X	6 5	4E-X	4b-]	(16ggLL
.	.	.	.	16ff)
.	.	.	.	(16ee-X
.	.	.	.	16ddJJ)
4F	.	4F	4a	8.ccL
.	.	.	.	16ccJk
2BB-	.	2BB-	2b-	2b-
=:|!	=:|!	=:|!	=:|!	=:|!
*-	*-	*-	*-	*-
!!!system-decoration: [{s1,s2},s3,s4]
!!!YEM: CC BY-NC-SA 4.0; CCARH; DCML